svg/emoji_u1f97a.svg

<svg width="128" height="128" viewBox="0 0 128 128" fill="none" xmlns="http://www.w3.org/2000/svg">
<path d="M63.6001 118.8C35.7001 118.8 5.6001 101.3 5.6001 62.9C5.6001 24.5 35.7001 7 63.6001 7C79.1001 7 93.4001 12.1 104 21.4C115.5 31.6 121.6 46 121.6 62.9C121.6 79.8 115.5 94.1 104 104.3C93.4001 113.6 79.0001 118.8 63.6001 118.8Z" fill="url(#paint0_radial_2351_764)" style=""/>
<path d="M111.49 29.6699C116.82 38.2699 119.6 48.5099 119.6 59.8999C119.6 76.7999 113.5 91.0999 102 101.3C91.4002 110.6 77.0002 115.8 61.6002 115.8C43.5402 115.8 24.6002 108.45 13.4202 92.8599C24.1802 110.52 44.4202 118.8 63.6002 118.8C79.0002 118.8 93.4002 113.6 104 104.3C115.5 94.0999 121.6 79.7999 121.6 62.8999C121.6 50.1599 118.13 38.8399 111.49 29.6699Z" fill="#EB8F00" style="fill:#EB8F00;fill:color(display-p3 0.9216 0.5608 0.0000);fill-opacity:1;"/>
<path d="M69.6958 100.996C69.2253 100.996 68.7547 100.896 68.3255 100.696C65.2879 99.3353 61.8292 99.3102 58.7833 100.645C57.1572 101.472 55.1679 100.804 54.3507 99.16C53.5335 97.516 54.1938 95.5048 55.82 94.6786C60.6653 92.4587 66.2041 92.442 71.066 94.6202C72.7252 95.3879 73.4598 97.3658 72.7004 99.0432C72.1639 100.237 70.9917 100.996 69.6958 100.996Z" fill="#422B0D" style="fill:#422B0D;fill:color(display-p3 0.2588 0.1686 0.0510);fill-opacity:1;"/>
<path d="M42.9999 47.6997C52.5799 47.7297 60.3299 55.5197 60.2999 65.0997C60.2699 74.6797 52.4799 82.4297 42.8999 82.3997C33.3199 82.3697 25.5699 74.5797 25.5999 64.9997C25.6599 55.4297 33.4299 47.7097 42.9999 47.6997Z" fill="white" style="fill:white;fill-opacity:1;"/>
<path d="M42.7001 78.1999C51.2052 78.1999 58.1 71.3051 58.1 62.7999C58.1 54.2947 51.2052 47.3999 42.7001 47.3999C34.1949 47.3999 27.3 54.2947 27.3 62.7999C27.3 71.3051 34.1949 78.1999 42.7001 78.1999Z" fill="#422B0D" style="fill:#422B0D;fill:color(display-p3 0.2588 0.1686 0.0510);fill-opacity:1;"/>
<path d="M49.6673 70.4589C50.7671 69.5357 50.9679 67.9644 50.1157 66.9492C49.2636 65.934 47.6812 65.8594 46.5814 66.7826C45.4816 67.7057 45.2809 69.2771 46.133 70.2923C46.9852 71.3075 48.5676 71.382 49.6673 70.4589Z" fill="white" style="fill:white;fill-opacity:1;"/>
<path d="M43.0515 63.8675C47.0389 60.8996 48.3198 55.8718 45.9124 52.6376C43.5051 49.4033 38.3212 49.1875 34.3338 52.1554C30.3464 55.1233 29.0655 60.1511 31.4728 63.3854C33.8802 66.6196 39.0641 66.8354 43.0515 63.8675Z" fill="white" style="fill:white;fill-opacity:1;"/>
<path d="M85.9999 47.6997C95.5799 47.7297 103.33 55.5197 103.3 65.0997C103.27 74.6797 95.4799 82.4297 85.8999 82.3997C76.3199 82.3697 68.5699 74.5797 68.5999 64.9997C68.6599 55.4297 76.4299 47.7097 85.9999 47.6997Z" fill="white" style="fill:white;fill-opacity:1;"/>
<path d="M85.7 78.1999C94.2052 78.1999 101.1 71.3051 101.1 62.7999C101.1 54.2947 94.2052 47.3999 85.7 47.3999C77.1949 47.3999 70.3 54.2947 70.3 62.7999C70.3 71.3051 77.1949 78.1999 85.7 78.1999Z" fill="#422B0D" style="fill:#422B0D;fill:color(display-p3 0.2588 0.1686 0.0510);fill-opacity:1;"/>
<path d="M92.7474 70.3974C93.8472 69.4742 94.048 67.9028 93.1958 66.8877C92.3436 65.8725 90.7613 65.7979 89.6615 66.721C88.5617 67.6442 88.361 69.2155 89.2131 70.2307C90.0653 71.2459 91.6476 71.3205 92.7474 70.3974Z" fill="white" style="fill:white;fill-opacity:1;"/>
<path d="M86.0625 63.8748C90.0498 60.9069 91.3307 55.8791 88.9234 52.6449C86.5161 49.4107 81.3322 49.1948 77.3448 52.1627C73.3574 55.1306 72.0765 60.1585 74.4838 63.3927C76.8911 66.6269 82.0751 66.8428 86.0625 63.8748Z" fill="white" style="fill:white;fill-opacity:1;"/>
<path d="M27.3999 39.7998C25.1999 40.1998 25.0999 43.3998 27.4999 43.4998C32.7999 43.5698 37.9199 41.5998 41.7999 37.9998C43.2799 36.7198 44.5299 35.1998 45.4999 33.4998C46.0799 32.6698 45.8799 31.5298 45.0499 30.9498C44.2199 30.3698 43.0799 30.5698 42.4999 31.3998L42.3999 31.4998C38.4799 35.8798 33.1899 38.8098 27.3999 39.7998Z" fill="#422B0D" style="fill:#422B0D;fill:color(display-p3 0.2588 0.1686 0.0510);fill-opacity:1;"/>
<path d="M84.4998 31.3998C83.9198 30.5698 82.7798 30.3698 81.9498 30.9498C81.1198 31.5298 80.9198 32.6698 81.4998 33.4998C82.4698 35.1998 83.7198 36.7198 85.1998 37.9998C89.0998 41.5698 94.2098 43.5398 99.4998 43.4998C102 43.3998 101.8 40.1998 99.5998 39.7998C93.7398 38.8398 88.4098 35.8698 84.4998 31.3998Z" fill="#422B0D" style="fill:#422B0D;fill:color(display-p3 0.2588 0.1686 0.0510);fill-opacity:1;"/>
<defs>
<radialGradient id="paint0_radial_2351_764" cx="0" cy="0" r="1" gradientUnits="userSpaceOnUse" gradientTransform="translate(63.6001 62.9) scale(56.9597 56.9597)">
<stop offset="0.5" stop-color="#FDE030" style="stop-color:#FDE030;stop-color:color(display-p3 0.9922 0.8784 0.1882);stop-opacity:1;"/>
<stop offset="0.92" stop-color="#F7C02B" style="stop-color:#F7C02B;stop-color:color(display-p3 0.9686 0.7529 0.1686);stop-opacity:1;"/>
<stop offset="1" stop-color="#F4A223" style="stop-color:#F4A223;stop-color:color(display-p3 0.9569 0.6353 0.1373);stop-opacity:1;"/>
</radialGradient>
</defs>
</svg>

<?xml version="1.0" encoding="utf-8"?>
<!-- Generator: Adobe Illustrator 24.1.2, SVG Export Plug-In . SVG Version: 6.00 Build 0)  -->
<svg version="1.1" id="Layer_1" xmlns="http://www.w3.org/2000/svg" xmlns:xlink="http://www.w3.org/1999/xlink" x="0px" y="0px"
	 viewBox="0 0 128 128" style="enable-background:new 0 0 128 128;" xml:space="preserve">
<g id="gold">
	
		<radialGradient id="face_1_" cx="63.6" cy="1400.9" r="56.9597" gradientTransform="matrix(1 0 0 1 0 -1338)" gradientUnits="userSpaceOnUse">
		<stop  offset="0.5" style="stop-color:#FDE030"/>
		<stop  offset="0.92" style="stop-color:#F7C02B"/>
		<stop  offset="1" style="stop-color:#F4A223"/>
	</radialGradient>
	<path id="face" style="fill:url(#face_1_);" d="M63.6,118.8c-27.9,0-58-17.5-58-55.9S35.7,7,63.6,7c15.5,0,29.8,5.1,40.4,14.4
		c11.5,10.2,17.6,24.6,17.6,41.5s-6.1,31.2-17.6,41.4C93.4,113.6,79,118.8,63.6,118.8z"/>
	<path style="fill:#EB8F00;" d="M111.49,29.67c5.33,8.6,8.11,18.84,8.11,30.23c0,16.9-6.1,31.2-17.6,41.4
		c-10.6,9.3-25,14.5-40.4,14.5c-18.06,0-37-7.35-48.18-22.94c10.76,17.66,31,25.94,50.18,25.94c15.4,0,29.8-5.2,40.4-14.5
		c11.5-10.2,17.6-24.5,17.6-41.4C121.6,50.16,118.13,38.84,111.49,29.67z"/>
</g>
<g id="facial_expressions">
	<g id="pleading-face">
		<path style="fill:#422B0D;" d="M71,101c-0.57,0-1.14-0.12-1.66-0.36c-3.68-1.63-7.87-1.66-11.56-0.06
			c-1.97,0.99-4.38,0.19-5.37-1.78c-0.99-1.97-0.19-4.38,1.78-5.37l0,0c5.87-2.66,12.58-2.68,18.47-0.07
			c2.01,0.92,2.9,3.29,1.98,5.3C73.99,100.09,72.57,101,71,101z"/>
		<g id="eyes">
			<path style="fill:#FFFFFF;" d="M43,47.7c9.58,0.03,17.33,7.82,17.3,17.4s-7.82,17.33-17.4,17.3c-9.58-0.03-17.33-7.82-17.3-17.4
				C25.66,55.43,33.43,47.71,43,47.7"/>
			<circle style="fill:#422B0D;" cx="42.7" cy="62.8" r="15.4"/>
			
				<ellipse transform="matrix(0.7659 -0.6429 0.6429 0.7659 -32.8541 47.0076)" style="fill:#FFFFFF;" cx="48.13" cy="68.62" rx="2.6" ry="2.4"/>
			
				<ellipse transform="matrix(0.8022 -0.5971 0.5971 0.8022 -26.9821 34.5782)" style="fill:#FFFFFF;" cx="38.69" cy="58.01" rx="9" ry="7.3"/>
			<path style="fill:#FFFFFF;" d="M86,47.7c9.58,0.03,17.33,7.82,17.3,17.4c-0.03,9.58-7.82,17.33-17.4,17.3
				c-9.58-0.03-17.33-7.82-17.3-17.4C68.66,55.43,76.43,47.71,86,47.7"/>
			<circle style="fill:#422B0D;" cx="85.7" cy="62.8" r="15.4"/>
			
				<ellipse transform="matrix(0.7659 -0.6429 0.6429 0.7659 -22.7305 74.6885)" style="fill:#FFFFFF;" cx="91.21" cy="68.56" rx="2.6" ry="2.4"/>
			
				<ellipse transform="matrix(0.8022 -0.5971 0.5971 0.8022 -18.4797 60.2586)" style="fill:#FFFFFF;" cx="81.7" cy="58.02" rx="9" ry="7.3"/>
		</g>
	</g>
	<g id="eyebrows">
		<path style="fill:#422B0D;" d="M27.4,39.8c-2.2,0.4-2.3,3.6,0.1,3.7c5.3,0.07,10.42-1.9,14.3-5.5c1.48-1.28,2.73-2.8,3.7-4.5
			c0.58-0.83,0.38-1.97-0.45-2.55c-0.83-0.58-1.97-0.38-2.55,0.45l-0.1,0.1C38.48,35.88,33.19,38.81,27.4,39.8z"/>
		<path style="fill:#422B0D;" d="M84.5,31.4c-0.58-0.83-1.72-1.03-2.55-0.45c-0.83,0.58-1.03,1.72-0.45,2.55
			c0.97,1.7,2.22,3.22,3.7,4.5c3.9,3.57,9.01,5.54,14.3,5.5c2.5-0.1,2.3-3.3,0.1-3.7C93.74,38.84,88.41,35.87,84.5,31.4L84.5,31.4"
			/>
	</g>
</g>
</svg>
